angular-fe/src/assets/img/homepage-slides-1.svg

<?xml version="1.0" encoding="UTF-8"?>
<svg viewBox="0 0 296 297" xmlns="http://www.w3.org/2000/svg">
<path d="M0 0H296V297H0V0Z" fill="#2E3374"/>
<rect x="121" y="188.58" width="10.421" height="43.421" rx="3.5" fill="#DDE3E9"/>
<rect x="145.32" y="160.79" width="10.421" height="71.21" rx="3.5" fill="#DDE3E9"/>
<rect x="169.63" y="146.9" width="10.421" height="85.105" rx="3.5" fill="#C5CFD6"/>
<rect x="193.95" y="160.79" width="10.421" height="71.21" rx="3.5" fill="#C5CFD6"/>
<rect x="218.26" y="133" width="10.421" height="99" rx="3.5" fill="#AFB9C5"/>
<path d="m62.94 50.873c0.2197-0.1105 0.6904-0.0816 0.9128-0.0876 0.9241-0.0247 1.8577 0.0567 2.7682 0.2145 2.8068 0.4908 5.6112 1.2662 8.2879 2.2309 1.6994 0.6124 3.6385 2.0183 5.48 1.7565 3.2082-0.4563 6.2701 0.1241 8.9091 2.0267 2.4128 1.7397 3.9909 4.523 4.7019 7.3581 0.1073 0.428 0.5683 2.0146 0.5997 3.0357 0.0515 0.2166 0.0994 0.434 0.1386 0.6531 0.1112 0.6218 0.1986 1.2501 0.2724 1.8772 0.0316 0.2675 0.1245 0.8623-0.1203 0.9318 0.2434 0.7419 0.4422 1.4975 0.5836 2.2665 0.4111 2.2366 0.8594 4.6895 0.7457 6.9648-0.042 0.8425-0.182 1.673-0.419 2.4834-0.1172 0.4005-0.2404 1.2254-0.566 1.4889-0.691 0.5593-0.8272-0.4149-0.686-0.8431 1.0771-3.2639 0.6636-6.5759 0.0731-9.9218-0.3818-2.1636-1.2662-4.2357-2.3262-6.1572-0.8578-1.5553-1.8455-2.8342-3.1889-3.9997-1.6428-1.4251-3.4492-2.6602-5.2371-3.8948-1.1759-0.8123-2.356-1.609-3.5817-2.3457-0.2726-0.164-0.6819-0.534-1.0057-0.5912-0.6846-0.1213-1.7448 0.2257-2.4397 0.3027-2.2858 0.2535-4.6301 0.6789-6.9354 0.6111-1.4786-0.0432-2.79-0.5103-4.0545-1.2341-0.1292-0.0738-0.3381-0.2425-0.5894-0.4753-0.9337-0.5664-1.7957-1.225-2.4973-2.0812-0.4042-0.4933-0.7435-1.0991-1.0527-1.6533-0.0925-0.1657-0.1157-0.3413-0.0901-0.4999-0.0809-0.0629-0.1304-0.1286-0.1325-0.1957-0.0153-0.4954 0.8814-0.3491 1.4495-0.2213z" clip-rule="evenodd" fill="#89C5CC" fill-rule="evenodd"/>
<path d="m48.79 63.035c1.0183-0.836 2.2931-1.4659 3.4706-2.0441 6.3019-3.1264 13.955-3.3407 20.364-0.6972 5.4558 2.2504 8.9417 6.7399 12.192 11.419 0.3226 0.4646 0.6054 0.9455 0.8995 1.4261 0.0631 0.1031 0.1243 0.1926 0.1834 0.276 0.3849 0.0989 0.6639 0.3012 0.6615 0.6819 1.2316 0.9659 2.39 2.0099 3.4993 3.1305 3.2649 3.2985 6.5897 6.6609 7.9335 11.201-1.3511-2.1849-2.9297-4.318-4.5379-6.3237-0.0924-0.1151-0.1864-0.2282-0.2813-0.3401-0.0099-0.0119-0.0196-0.0239-0.0295-0.0356-0.5144-0.603-1.0669-1.1605-1.6596-1.6841-0.0064-0.0057-0.0126-0.0115-0.019-0.0171-0.0781-0.0688-0.1581-0.1361-0.2376-0.2037-0.1646-0.1399-0.331-0.2784-0.5016-0.4136-0.0578-0.0462-0.115-0.0935-0.1713-0.1418-0.8394-0.7163-1.522-1.6585-2.3386-2.4263-0.1897-0.1726-0.3826-0.3425-0.5789-0.5092-0.0115-0.0097-0.0231-0.0194-0.0347-0.0291-0.5293-0.4481-1.0799-0.8765-1.6424-1.2913-0.208-0.035-0.4312-0.2719-0.6907-0.4583-0.0524-0.036-0.4327-0.2607-0.5934-0.42-0.3235-0.2292-0.6465-0.4588-0.9709-0.6868 0.0059-7e-4 0.0117-0.0014 0.0176-0.0021-0.3182-0.2156-0.6362-0.4297-0.9523-0.6431-0.0694-0.0469-0.1393-0.0936-0.2092-0.1406-0.1122-0.0742-0.2244-0.1482-0.3363-0.2221-1.0474-0.6917-2.1178-1.347-3.2046-1.979-0.3878-0.2255-1.1497-0.4433-1.442-0.77-0.0108-0.0123-0.0183-0.0248-0.0275-0.0372-2.2459-1.1525-4.6172-2.0618-7.1097-2.4675 0.3388 0.1222 1.2115 0.6791 1.4151 0.7735 0.6232 0.2892 1.2616 0.5286 1.9043 0.7727 1.1511 0.4373 2.298 0.9093 3.39 1.4705 1.9968 1.0264 3.8775 2.2199 5.7209 3.4759 0.0143 0.0056 0.0291 0.0102 0.043 0.0163 0.7763 0.3384 1.5288 1.0659 2.2145 1.5568-1.6794 0.073-3.3908 0.4373-5.0701 0.5986-1.6745 0.1609-3.3433 0.2397-5.0204 0.1872-2.2291-0.0697-4.5865-0.2301-6.8567-0.6156-2.4733-0.1921-4.8698-0.9735-7.1213-1.9286-2.6639-1.13-5.1988-2.3481-7.3652-4.2682-1.0643-0.9437-2.0566-1.988-2.909-3.1221-0.0372-0.0494-0.0794-0.1021-0.1237-0.1565-0.4396-0.3172-0.861-0.656-1.256-1.0211-0.6268-0.5788-1.6459-1.0465-0.6176-1.8904z" clip-rule="evenodd" fill="#69A1AC" fill-rule="evenodd"/>
<path d="m184.2 110.83c-0.167-0.18-0.618-0.319-0.824-0.403-0.857-0.347-1.759-0.599-2.667-0.771-2.801-0.527-5.699-0.787-8.544-0.824-1.806-0.024-4.115 0.611-5.747-0.281-2.844-1.555-5.914-2.087-9.053-1.234-2.871 0.781-5.326 2.833-6.988 5.237-0.251 0.363-1.24 1.686-1.628 2.631-0.125 0.185-0.246 0.372-0.36 0.563-0.322 0.543-0.625 1.101-0.914 1.662-0.124 0.239-0.42 0.763-0.215 0.914-0.489 0.61-0.94 1.247-1.343 1.917-1.171 1.95-2.452 4.089-3.145 6.259-0.257 0.804-0.418 1.63-0.481 2.472-0.031 0.416-0.205 1.232 7e-3 1.593 0.45 0.767 0.92-0.098 0.938-0.548 0.139-3.434 1.69-6.39 3.418-9.315 1.118-1.891 2.674-3.521 4.342-4.947 1.35-1.155 2.724-2.005 4.391-2.624 2.039-0.757 4.164-1.278 6.272-1.806 1.386-0.347 2.771-0.679 4.177-0.938 0.313-0.057 0.826-0.26 1.15-0.2 0.683 0.127 1.554 0.825 2.177 1.141 2.051 1.041 4.097 2.263 6.279 3.009 1.399 0.479 2.791 0.503 4.229 0.27 0.147-0.024 0.402-0.109 0.719-0.238 1.073-0.203 2.112-0.516 3.069-1.071 0.552-0.32 1.083-0.768 1.567-1.178 0.145-0.123 0.228-0.279 0.26-0.437 0.098-0.03 0.167-0.074 0.193-0.136 0.188-0.459-0.703-0.637-1.279-0.717z" clip-rule="evenodd" fill="#89C5CC" fill-rule="evenodd"/>
<path d="m193.17 127.18c-0.66-1.141-1.632-2.178-2.531-3.134-4.802-5.141-11.892-8.031-18.82-7.808-5.899 0.19-10.74 3.168-15.427 6.406-0.466 0.322-0.899 0.673-1.344 1.019-0.095 0.075-0.184 0.137-0.268 0.194-0.395-0.043-0.728 0.049-0.859 0.406-1.493 0.472-2.944 1.042-4.376 1.701-4.216 1.941-8.51 3.921-11.364 7.7 2.033-1.571 4.26-3.014 6.471-4.326 0.127-0.076 0.254-0.148 0.382-0.22 0.014-7e-3 0.027-0.015 0.041-0.023 0.693-0.384 1.406-0.711 2.145-0.993 8e-3 -3e-3 0.016-7e-3 0.024-0.01 0.097-0.037 0.196-0.072 0.294-0.107 0.203-0.073 0.408-0.144 0.615-0.211 0.07-0.023 0.14-0.047 0.21-0.072 1.038-0.376 2.008-1.018 3.042-1.45 0.238-0.095 0.479-0.186 0.721-0.273 0.014-6e-3 0.029-0.011 0.043-0.016 0.653-0.233 1.319-0.441 1.991-0.631 0.207 0.04 0.499-0.103 0.808-0.187 0.062-0.015 0.497-0.092 0.703-0.184 0.383-0.101 0.767-0.203 1.15-0.302-5e-3 -3e-3 -0.01-6e-3 -0.015-8e-3 0.373-0.09 0.746-0.179 1.117-0.268 0.082-0.019 0.164-0.039 0.245-0.058 0.132-0.03 0.263-0.06 0.393-0.09 1.224-0.279 2.456-0.517 3.696-0.726 0.442-0.075 1.232-0.011 1.621-0.215 0.014-7e-3 0.026-0.016 0.038-0.025 2.508-0.29 5.048-0.308 7.524 0.188-0.36-4e-3 -1.373 0.211-1.597 0.227-0.685 0.052-1.367 0.052-2.054 0.055-1.232 5e-3 -2.471 0.043-3.691 0.185-2.23 0.259-4.41 0.716-6.577 1.244-0.016 0-0.031-1e-3 -0.046 0-0.846 0.044-1.806 0.461-2.621 0.68 1.547 0.658 3.021 1.6 4.537 2.342 1.511 0.739 3.046 1.399 4.634 1.939 2.112 0.718 4.375 1.396 6.636 1.833 2.383 0.689 4.901 0.8 7.345 0.697 2.891-0.122 5.692-0.372 8.395-1.408 1.328-0.509 2.624-1.138 3.821-1.901 0.052-0.033 0.11-0.067 0.171-0.103 0.523-0.142 1.036-0.311 1.534-0.514 0.791-0.322 1.909-0.402 1.243-1.553z" clip-rule="evenodd" fill="#69A1AC" fill-rule="evenodd"/>
<path d="m118.46 121.61c-2.567 2.716-6.204 4.422-10.249 4.422-7.772 0-14.073-6.26-14.073-13.981 0-7.722 6.3007-13.982 14.073-13.982v-25.966c-22.11 0-40.208 17.98-40.208 39.948 0 21.967 18.098 39.947 40.208 39.947 11.614 0 22.111-4.882 29.266-12.647l-19.017-17.741z" clip-rule="evenodd" fill="#F2F2F2" fill-rule="evenodd"/>
<path d="m107.95 72.105v25.966c7.722 0 13.982 6.26 13.982 13.982h25.966c0-21.968-17.981-39.948-39.948-39.948z" clip-rule="evenodd" fill="#AFB9C5" fill-rule="evenodd"/>
<path d="m121.97 112.05c0 4.439-2.09 8.383-5.337 10.931l15.972 20.333c9.298-7.28 15.291-18.564 15.291-31.264h-25.926z" clip-rule="evenodd" fill="#C5CFD6" fill-rule="evenodd"/>
</svg>

<svg width="296" height="297" viewBox="0 0 296 297" fill="none" xmlns="http://www.w3.org/2000/svg">
<path d="M0 0H296V297H0V0Z" fill="#2E3374"/>
<rect x="121" y="188.579" width="10.4211" height="43.4211" rx="3.5" fill="#DDE3E9"/>
<rect x="145.316" y="160.79" width="10.4211" height="71.2105" rx="3.5" fill="#DDE3E9"/>
<rect x="169.631" y="146.895" width="10.4211" height="85.1053" rx="3.5" fill="#C5CFD6"/>
<rect x="193.947" y="160.79" width="10.4211" height="71.2105" rx="3.5" fill="#C5CFD6"/>
<rect x="218.264" y="133" width="10.4211" height="99" rx="3.5" fill="#AFB9C5"/>
<path fill-rule="evenodd" clip-rule="evenodd" d="M62.9403 50.873C63.16 50.7625 63.6307 50.7914 63.8531 50.7854C64.7772 50.7607 65.7108 50.8421 66.6213 50.9999C69.4281 51.4907 72.2325 52.2661 74.9092 53.2308C76.6086 53.8432 78.5477 55.2491 80.3892 54.9873C83.5974 54.531 86.6593 55.1114 89.2983 57.014C91.7111 58.7537 93.2892 61.537 94.0002 64.3721C94.1075 64.8001 94.5685 66.3867 94.5999 67.4078C94.6514 67.6244 94.6993 67.8418 94.7385 68.0609C94.8497 68.6827 94.9371 69.311 95.0109 69.9381C95.0425 70.2056 95.1354 70.8004 94.8906 70.8699C95.134 71.6118 95.3328 72.3674 95.4742 73.1364C95.8853 75.373 96.3336 77.8259 96.2199 80.1012C96.1779 80.9437 96.0379 81.7742 95.8009 82.5846C95.6837 82.9851 95.5605 83.81 95.2349 84.0735C94.5439 84.6328 94.4077 83.6586 94.5489 83.2304C95.626 79.9665 95.2125 76.6545 94.622 73.3086C94.2402 71.145 93.3558 69.0729 92.2958 67.1514C91.438 65.5961 90.4503 64.3172 89.1069 63.1517C87.4641 61.7266 85.6577 60.4915 83.8698 59.2569C82.6939 58.4446 81.5138 57.6479 80.2881 56.9112C80.0155 56.7472 79.6062 56.3772 79.2824 56.32C78.5978 56.1987 77.5376 56.5457 76.8427 56.6227C74.5569 56.8762 72.2126 57.3016 69.9073 57.2338C68.4287 57.1906 67.1173 56.7235 65.8528 55.9997C65.7236 55.9259 65.5147 55.7572 65.2634 55.5244C64.3297 54.958 63.4677 54.2994 62.7661 53.4432C62.3619 52.9499 62.0226 52.3441 61.7134 51.7899C61.6209 51.6242 61.5977 51.4486 61.6233 51.29C61.5424 51.2271 61.4929 51.1614 61.4908 51.0943C61.4755 50.5989 62.3722 50.7452 62.9403 50.873Z" fill="#89C5CC"/>
<path fill-rule="evenodd" clip-rule="evenodd" d="M48.7904 63.0352C49.8087 62.1992 51.0835 61.5693 52.261 60.9911C58.5629 57.8647 66.2163 57.6504 72.625 60.2939C78.0808 62.5443 81.5667 67.0338 84.8168 71.7126C85.1394 72.1772 85.4222 72.6581 85.7163 73.1387C85.7794 73.2418 85.8406 73.3313 85.8997 73.4147C86.2846 73.5136 86.5636 73.7159 86.5612 74.0966C87.7928 75.0625 88.9512 76.1065 90.0605 77.2271C93.3254 80.5256 96.6502 83.888 97.994 88.4285C96.6429 86.2436 95.0643 84.1105 93.4561 82.1048C93.3637 81.9897 93.2697 81.8766 93.1748 81.7647C93.1649 81.7528 93.1552 81.7408 93.1453 81.7291C92.6309 81.1261 92.0784 80.5686 91.4857 80.045C91.4793 80.0393 91.4731 80.0335 91.4667 80.0279C91.3886 79.9591 91.3086 79.8918 91.2291 79.8242C91.0645 79.6843 90.8981 79.5458 90.7275 79.4106C90.6697 79.3644 90.6125 79.3171 90.5562 79.2688C89.7168 78.5525 89.0342 77.6103 88.2176 76.8425C88.0279 76.6699 87.835 76.5 87.6387 76.3333C87.6272 76.3236 87.6156 76.3139 87.604 76.3042C87.0747 75.8561 86.5241 75.4277 85.9616 75.0129C85.7536 74.9779 85.5304 74.741 85.2709 74.5546C85.2185 74.5186 84.8382 74.2939 84.6775 74.1346C84.354 73.9054 84.031 73.6758 83.7066 73.4478C83.7125 73.4471 83.7183 73.4464 83.7242 73.4457C83.406 73.2301 83.088 73.016 82.7719 72.8026C82.7025 72.7557 82.6326 72.709 82.5627 72.662C82.4505 72.5878 82.3383 72.5138 82.2264 72.4399C81.179 71.7482 80.1086 71.0929 79.0218 70.4609C78.634 70.2354 77.8721 70.0176 77.5798 69.6909C77.569 69.6786 77.5615 69.6661 77.5523 69.6537C75.3064 68.5012 72.9351 67.5919 70.4426 67.1862C70.7814 67.3084 71.6541 67.8653 71.8577 67.9597C72.4809 68.2489 73.1193 68.4883 73.762 68.7324C74.9131 69.1697 76.06 69.6417 77.152 70.2029C79.1488 71.2293 81.0295 72.4228 82.8729 73.6788C82.8872 73.6844 82.902 73.689 82.9159 73.6951C83.6922 74.0335 84.4447 74.761 85.1304 75.2519C83.451 75.3249 81.7396 75.6892 80.0603 75.8505C78.3858 76.0114 76.717 76.0902 75.0399 76.0377C72.8108 75.968 70.4534 75.8076 68.1832 75.4221C65.7099 75.23 63.3134 74.4486 61.0619 73.4935C58.398 72.3635 55.8631 71.1454 53.6967 69.2253C52.6324 68.2816 51.6401 67.2373 50.7877 66.1032C50.7505 66.0538 50.7083 66.0011 50.664 65.9467C50.2244 65.6295 49.803 65.2907 49.408 64.9256C48.7812 64.3468 47.7621 63.8791 48.7904 63.0352Z" fill="#69A1AC"/>
<path fill-rule="evenodd" clip-rule="evenodd" d="M184.199 110.826C184.032 110.646 183.581 110.507 183.375 110.423C182.518 110.076 181.616 109.824 180.708 109.652C177.907 109.125 175.009 108.865 172.164 108.828C170.358 108.804 168.049 109.439 166.417 108.547C163.573 106.992 160.503 106.46 157.364 107.313C154.493 108.094 152.038 110.146 150.376 112.55C150.125 112.913 149.136 114.236 148.748 115.181C148.623 115.366 148.502 115.553 148.388 115.744C148.066 116.287 147.763 116.845 147.474 117.406C147.35 117.645 147.054 118.169 147.259 118.32C146.77 118.93 146.319 119.567 145.916 120.237C144.745 122.187 143.464 124.326 142.771 126.496C142.514 127.3 142.353 128.126 142.29 128.968C142.259 129.384 142.085 130.2 142.297 130.561C142.747 131.328 143.217 130.463 143.235 130.013C143.374 126.579 144.925 123.623 146.653 120.698C147.771 118.807 149.327 117.177 150.995 115.751C152.345 114.596 153.719 113.746 155.386 113.127C157.425 112.37 159.55 111.849 161.658 111.321C163.044 110.974 164.429 110.642 165.835 110.383C166.148 110.326 166.661 110.123 166.985 110.183C167.668 110.31 168.539 111.008 169.162 111.324C171.213 112.365 173.259 113.587 175.441 114.333C176.84 114.812 178.232 114.836 179.67 114.603C179.817 114.579 180.072 114.494 180.389 114.365C181.462 114.162 182.501 113.849 183.458 113.294C184.01 112.974 184.541 112.526 185.025 112.116C185.17 111.993 185.253 111.837 185.285 111.679C185.383 111.649 185.452 111.605 185.478 111.543C185.666 111.084 184.775 110.906 184.199 110.826Z" fill="#89C5CC"/>
<path fill-rule="evenodd" clip-rule="evenodd" d="M193.17 127.185C192.51 126.044 191.538 125.007 190.639 124.051C185.837 118.91 178.747 116.02 171.819 116.243C165.92 116.433 161.079 119.411 156.392 122.649C155.926 122.971 155.493 123.322 155.048 123.668C154.953 123.743 154.864 123.805 154.78 123.862C154.385 123.819 154.052 123.911 153.921 124.268C152.428 124.74 150.977 125.31 149.545 125.969C145.329 127.91 141.035 129.89 138.181 133.669C140.214 132.098 142.441 130.655 144.652 129.343C144.779 129.267 144.906 129.195 145.034 129.123C145.048 129.116 145.061 129.108 145.075 129.1C145.768 128.716 146.481 128.389 147.22 128.107C147.228 128.104 147.236 128.1 147.244 128.097C147.341 128.06 147.44 128.025 147.538 127.99C147.741 127.917 147.946 127.846 148.153 127.779C148.223 127.756 148.293 127.732 148.363 127.707C149.401 127.331 150.371 126.689 151.405 126.257C151.643 126.162 151.884 126.071 152.126 125.984C152.14 125.978 152.155 125.973 152.169 125.968C152.822 125.735 153.488 125.527 154.16 125.337C154.367 125.377 154.659 125.234 154.968 125.15C155.03 125.135 155.465 125.058 155.671 124.966C156.054 124.865 156.438 124.763 156.821 124.664C156.816 124.661 156.811 124.658 156.806 124.656C157.179 124.566 157.552 124.477 157.923 124.388C158.005 124.369 158.087 124.349 158.168 124.33C158.3 124.3 158.431 124.27 158.561 124.24C159.785 123.961 161.017 123.723 162.257 123.514C162.699 123.439 163.489 123.503 163.878 123.299C163.892 123.292 163.904 123.283 163.916 123.274C166.424 122.984 168.964 122.966 171.44 123.462C171.08 123.458 170.067 123.673 169.843 123.689C169.158 123.741 168.476 123.741 167.789 123.744C166.557 123.749 165.318 123.787 164.098 123.929C161.868 124.188 159.688 124.645 157.521 125.173C157.505 125.173 157.49 125.172 157.475 125.173C156.629 125.217 155.669 125.634 154.854 125.853C156.401 126.511 157.875 127.453 159.391 128.195C160.902 128.934 162.437 129.594 164.025 130.134C166.137 130.852 168.4 131.53 170.661 131.967C173.044 132.656 175.562 132.767 178.006 132.664C180.897 132.542 183.698 132.292 186.401 131.256C187.729 130.747 189.025 130.118 190.222 129.355C190.274 129.322 190.332 129.288 190.393 129.252C190.916 129.11 191.429 128.941 191.927 128.738C192.718 128.416 193.836 128.336 193.17 127.185Z" fill="#69A1AC"/>
<path fill-rule="evenodd" clip-rule="evenodd" d="M118.457 121.612C115.89 124.328 112.253 126.034 108.208 126.034C100.436 126.034 94.1353 119.774 94.1353 112.053C94.1353 104.331 100.436 98.071 108.208 98.071V72.1052C86.0977 72.1052 68 90.0855 68 112.053C68 134.02 86.0977 152 108.208 152C119.822 152 130.319 147.118 137.474 139.353L118.457 121.612Z" fill="#F2F2F2"/>
<path fill-rule="evenodd" clip-rule="evenodd" d="M107.947 72.1052V98.071C115.669 98.071 121.929 104.331 121.929 112.053H147.895C147.895 90.0855 129.914 72.1052 107.947 72.1052Z" fill="#AFB9C5"/>
<path fill-rule="evenodd" clip-rule="evenodd" d="M121.969 112.052C121.969 116.491 119.879 120.435 116.632 122.983L132.604 143.316C141.902 136.036 147.895 124.752 147.895 112.052H121.969Z" fill="#C5CFD6"/>
</svg>
